!!!!SEGMENT: pl-wtm--r-2137--002_wysocki-kasper-napoleon--anglaise-par-wysocki.krn
!!!cenid: 18xx:4366
!!!COM: Wysocki, Kasper Napoleon
!!!COM-rismID: pe41024789
!!!CDT: 1810/12/06-1850/09/21
!!!CNT: Polish
!!!OTL: Anglaise par Wysocki
!!!PDT:
!!!AGN:
!!!SMS-siglum: PL-Wtm
!!!SMS-shelfmark: R 2137
!!!SMS-shelfwork: 002 W
!!!SMS-variant:
!!!SMS-altvar:
!!!NIFC-rismSourceID: 1001139713
!!!NIFC-rismChildID: 1001139747
!!!NIFC-islandoraID: pl-wtm:29938
!!!URL-pdf-islandora: https://repozytorium.nifc.pl/islandora/object/pl-wtm:29938/datastream/PDF/view
!!!URL-scan: https://polish.musicsources.pl/pl/lokalizacje/galeria/rekopisy/6567/3 @EN{Scan on Polish Music Sources Website} @PL{Skany w portalu Dziedzictwo Muzyki Polskiej w otwartym dostępie}
!!!ONB-nifc: UWAGA: skan 3 (lewa strona).
!!!AIN: 2 piano
!!!key: G
!!!OMD: Anglaise par Wysocki.
**kern	**kern	**dynam
*part2	*part1	*part1
*staff2	*staff1	*
*I"fortepian	*I"fortepian	*
*Ipiano	*Ipiano	*
*ICklav	*ICklav	*
*clefF4	*clefG2	*
*k[f#]	*k[f#]	*
*G:	*G:	*
*M2/4	*M2/4	*
=1	=1	=1
*	*^	*
8G 8GG/	8r	8ryy	.
!	!	!LO:TUP:a:problem:klamra łukowa	!
8BL 8G\	8ddd/	24bb\LL	f
.	.	24gg\	.
.	.	24ee\JJ	.
8D\	8dd 8b 8g/	8ryy	.
8BJ 8G\	8ggg: 8ddd: 8bb: 8gg:\	8ryy	.
=2	=2	=2	=2
8G 8GG/	8r	8ryy	.
*	*	*Xtuplet	*
8BL 8G\	8ddd/	24bb\LL	.
.	.	24gg\	.
.	.	24ee\JJ	.
8D\	8dd 8b 8g/	8ryy	.
8BJ 8G\	8ggg: 8ddd: 8bb: 8gg:\	8ryy	.
*	*v	*v	*
=3	=3	=3
*	*8va	*
4D 4DD/	8dddd: 8aaa: 8fff#: 8ddd:\	ff
*	*tuplet	*
!	!LO:TUP:a:problem:klamra łukowa	!
.	24dddd\LL	p
.	24eeee\	.
!	!LO:TX:b:t=leggiero	!
.	24dddd\JJ	.
!	!LO:TUP:a:problem:klamra łukowa	!
8cL 8A 8F# 8D\	24cccc#X\LL	.
.	24dddd\	.
.	24cccc#\JJ	.
!	!LO:TUP:a:problem:klamra łukowa	!
8cJ 8A 8F# 8D\	24ccccn\LL	.
.	24dddd\	.
.	24cccc\JJ	.
=4	=4	=4
!LO:TX:a:t=P:problem:mixed beam	!LO:TUP:a:problem:klamra łukowa	!
8DD/L	24bbb\LL	.
.	24cccc\	.
.	24bbb\JJ	.
!	!LO:TUP:a:problem:klamra łukowa	!
8c 8A 8F#\	24aaa\LL	.
.	24bbb\	.
.	24aaa\JJ	.
!	!LO:TUP:a:problem:klamra łukowa	!
8D\	24ggg\LL	.
.	24aaa\	.
.	24ggg\JJ	.
!	!LO:TUP:a:problem:klamra łukowa	!
8cJ 8A 8F#\	24fff#\LL	.
.	24ggg\	.
.	24fff#\JJ	.
*	*X8va	*
!!LO:LB:g=original
=5	=5	=5
*	*^	*
!LO:TX:a:t=P:problem:mixed beam	!LO:TX:a:t=loco	!	!
8GG/L	8gg\	8ryy	.
*	*	*Xtuplet	*
8B 8G\	8ddd/	24bb\LL	.
.	.	24gg\	.
.	.	24ee\JJ	.
8D\	8dd 8b 8g/	8ryy	.
*	*v	*v	*
*	*8va	*
*	*^	*
8BJ 8G\	8ggg 8ddd 8bb 8gg\	8ryy	.
*	*v	*v	*
*	*X8va	*
=6	=6	=6
*	*^	*
!LO:TX:a:t=P:problem:mixed beam	!	!	!
8GG/L	8r	8ryy	.
!	!LO:TX:a:rj:t=loco	!	!
8B 8G\	8ddd/	24bb\LL	.
.	.	24gg\	.
.	.	24ee\JJ	.
8D\	8dd 8b 8g/	8ryy	.
8BJ 8G\	8ggg: 8ddd: 8bb: 8gg:\	8ryy	.
*	*v	*v	*
=7	=7	=7
4D 4DD/	8ddd: 8aa: 8ff#: 8dd:\	.
*	*tuplet	*
*	*8va	*
!	!LO:TUP:a	!
.	(24dddd\LL	.
.	24eeee\	.
.	24dddd\JJ	.
!	!LO:TUP:a	!
8cL 8A 8F# 8D\	24cccc#X\LL	.
.	24dddd\	.
.	24cccc#\JJ	.
!	!LO:TUP:a	!
8cJ 8A 8F# 8D\	24ccccn\LL	.
.	24dddd\	.
.	24cccc\JJ	.
=8	=8	=8
!LO:TX:a:t=P:problem:mixed beam	!LO:TUP:a	!
8DD/L	24bbb\LL	.
.	24cccc\	.
.	24bbb\JJ	.
!	!LO:TUP:a	!
8c 8A 8F#\	24aaa\LL	.
.	24bbb\	.
.	24aaa\JJ	.
!	!LO:TUP:a	!
8D\	24ggg\LL	.
.	24aaa\	.
.	24ggg\JJ	.
!	!LO:TUP:a	!
8cJ 8A 8F#\	24fff#\LL	.
.	24ggg\	.
.	24fff#\JJ)	.
*	*X8va	*
!!LO:LB:g=original
=9	=9	=9
*	*	*^
*	*8va	*	*
8G 8GG/	8ggg\	f	sf
!	!LO:TUP:a:problem:klamra łukowa	!	!
8GL 8E 8C#X\	24aa\LL	.	.
.	24aaa\	.	.
.	24aa\JJ	.	.
!	!LO:TUP:a:problem:klamra łukowa	!	!
8AA\	24bb\LL	.	.
.	24bbb\	.	.
.	24bb\JJ	.	.
!	!LO:TUP:a:problem:klamra łukowa	!	!
8GJ 8E 8C#\	24aa\LL	.	.
.	24aaa\	.	.
.	24aa\JJ	.	.
*	*	*v	*v
=10	=10	=10
!	!LO:TUP:a:problem:klamra łukowa	!
8D 8DD/	24ff#\LL	.
.	24fff#\	.
.	24ff#\JJ	.
!	!LO:TUP:b:problem:klamra łukowa	!
8AL 8F#\	24dd/LL	.
.	24ddd/	.
.	24dd/JJ	.
!	!LO:TUP:b:problem:klamra łukowa	!
8D\	24cc#X/LL	.
.	24ccc#X/	.
.	24cc#/JJ	.
!	!LO:TUP:b:problem:klamra łukowa	!
8AJ 8F#\	24b/LL	.
.	24bb/	.
.	24b/JJ	.
*	*X8va	*
=11	=11	=11
!	!LO:TX:a:t=loco	!
!	!LO:TUP:a:problem:klamra łukowa	!
8AA 8AAA/	24a\LL	.
.	24aa\	.
.	24a\JJ	.
!	!LO:TUP:a:problem:klamra łukowa	!
8G 8E 8C#XL\	24b-X\LL	.
.	24bb-X\	.
.	24b-\JJ	.
!	!LO:TUP:a:problem:klamra łukowa	!
8AA\	24a\LL	.
.	24aa\	.
.	24a\JJ	.
!	!LO:TUP:a:problem:klamra łukowa	!
8GJ 8E 8C#\	24g\LL	.
.	24gg\	.
.	24g\JJ	.
!!LO:LB:g=original
=12	=12	=12
!	!LO:TUP:a:problem:klamra łukowa	!
8D 8DD/	24f#\LL	.
.	24ff#\	.
.	24f#\JJ	.
!	!LO:TUP:a:problem:klamra łukowa	!
8AL 8F#\	24g\LL	.
.	24gg\	.
.	24g\JJ	.
!	!LO:TUP:a:problem:klamra łukowa	!
8D\	24a\LL	.
.	24aa\	.
.	24a\JJ	.
8AJ 8F#\	8r	.
=13	=13	=13
*	*8va	*
4AA 4AAA/	8aaa 8eee 8ccc 8aa\	.
!	!LO:TUP:a:problem:klamra łukowa	!
.	24bb\LL	.
.	24bbb\	.
.	24bb\JJ	.
!	!LO:TUP:a:problem:klamra łukowa	!
8GL 8E 8C#X 8AA/	24aa\LL	.
.	24aaa\	.
.	24aa\JJ	.
!	!LO:TUP:a:problem:klamra łukowa	!
8GJ 8E 8C# 8AA/	24gg\LL	.
.	24ggg\	.
.	24gg\JJ	.
*	*X8va	*
=14	=14	=14
!	!LO:TX:a:t=loco	!
!	!LO:TUP:a:problem:klamra łukowa	!
8D 8DD/	24ff#\LL	.
.	24fff#\	.
.	24ff#\JJ	.
!	!LO:TUP:a:problem:klamra łukowa	!
8AL 8F#\	24dd\LL	.
.	24ddd\	.
.	24dd\JJ	.
!	!LO:TUP:a:problem:klamra łukowa	!
8D\	24cc#X\LL	.
.	24ccc#X\	.
.	24cc#\JJ	.
!	!LO:TUP:a:problem:klamra łukowa	!
8AJ 8F#\	24b\LL	.
.	24bb\	.
.	24b\JJ	.
!!LO:LB:g=original
=15	=15	=15
!	!LO:TUP:a:problem:klamra łukowa	!
8AA 8AAA/	24a\LL	.
.	24aa\	.
.	24a\JJ	.
!	!LO:TUP:a:problem:klamra łukowa	!
8GL 8E 8C#X\	24b\LL	.
.	24bb\	.
.	24b\JJ	.
!	!LO:TUP:a:problem:klamra łukowa	!
8AA\	24g\LL	.
.	24gg\	.
.	24g\JJ	.
!	!LO:TUP:a:problem:klamra łukowa	!
8GJ 8E 8C#\	24e\LL	.
.	24ee\	.
.	24e\JJ	.
=16	=16	=16
*	*Xtuplet	*
8D 8DD/	24d/LL	.
.	24dd/	.
.	24d/JJ	.
8A 8F# 8D\	24f#/LL	.
.	24ff#/	.
.	24f#/JJ	.
8D 8DD/	8dd 8d/	.
!	!LO:TX:b:t=fine	!
8r	8r	.
==	==	==
*-	*-	*-
!!!system-decoration: {(*)}
!!!ENC: Berenika Jozajtis
!!!END: 2023-07-13
!!!ENC: Marta Lawrence
!!!END: 2023-07-21
!!!YEC: Copyright 2022 Narodowy Instytut Fryderyka Chopina (https://polishscores.org)
!!!YEM: License CC-BY-4.0 (https://creativecommons.org/licenses/by/4.0)
